img/link-icon-webby.svg

<svg width="650" height="650" fill="none" xmlns="http://www.w3.org/2000/svg"><g clip-path="url(#clip0_258_457)"><path fill="#000" d="M0 0H650V650H0z"/><path d="M345.466 0H0v650h345.466V0z" fill="#000"/><path fill-rule="evenodd" clip-rule="evenodd" d="M274.989 650l-1.565-106.422c-15.918-27.768-22.619-29.824-81.864-36.02 156.708-50.611 38.006-75.911-8.186-83.501 144.211-38.792 70.154-58.639 20.984-71.817-11.656-3.123-21.913-5.872-27.533-8.41 178.635-31.772 46.236-67.204 13.025-76.092-1.204-.322-2.278-.609-3.202-.86 140.841-42.352 58.284-66.534 9.285-80.886-7.444-2.18-14.114-4.134-19.108-5.89 112.991-19.805 122.967-59.354-34.383-83.501l-22.922 27.833C246.972 141.324 245.796 155.256 0 163.565v29.903c308.288 25.32 230.404 41.371 0 53.762v32.746c303.465 22.464 198.327 31.532 93.189 40.599C56.19 323.766 19.192 326.957 0 330.731v26.197c21.947 3.329 53.012 6.509 84.078 9.689 111.135 11.375 222.27 22.75-84.078 40.969v33.039c216.185 12.954 301.892 22.998 3.273 50.56L0 490.367V650h274.989z" fill="#fff"/></g><defs><clipPath id="clip0_258_457"><path fill="#fff" d="M0 0H650V650H0z"/></clipPath></defs></svg>

<svg width="650" height="650" viewBox="0 0 650 650" fill="none" xmlns="http://www.w3.org/2000/svg">
<g clip-path="url(#clip0_258_457)">
<rect width="650" height="650" fill="black"/>
<path d="M345.466 0H0V650H345.466V0Z" fill="black"/>
<path fill-rule="evenodd" clip-rule="evenodd" d="M274.989 650L273.424 543.578C257.506 515.81 250.805 513.754 191.56 507.558C348.268 456.947 229.566 431.647 183.374 424.057C327.585 385.265 253.528 365.418 204.358 352.24C192.702 349.117 182.445 346.368 176.825 343.83C355.46 312.058 223.061 276.626 189.85 267.738C188.646 267.416 187.572 267.129 186.648 266.878C327.489 224.526 244.932 200.344 195.933 185.992C188.489 183.812 181.819 181.858 176.825 180.102C289.816 160.297 299.792 120.748 142.442 96.6006L119.52 124.434C246.972 141.324 245.796 155.256 0 163.565V193.468C308.288 218.788 230.404 234.839 0 247.23V279.976C303.465 302.44 198.327 311.508 93.1888 320.575C56.1905 323.766 19.1922 326.957 0 330.731V356.928C21.9471 360.257 53.0124 363.437 84.0777 366.617C195.213 377.992 306.348 389.367 0 407.586V440.625C216.185 453.579 301.892 463.623 3.27291 491.185L0 490.367V650H274.989Z" fill="white"/>
</g>
<defs>
<clipPath id="clip0_258_457">
<rect width="650" height="650" fill="white"/>
</clipPath>
</defs>
</svg>
